; generated by PrusaSlicer 2.2.0+win64 on 2020-10-28 at 08:54:28 UTC

; 

; external perimeters extrusion width = 0.45mm
; perimeters extrusion width = 0.45mm
; infill extrusion width = 0.45mm
; solid infill extrusion width = 0.45mm
; top infill extrusion width = 0.40mm
; first layer extrusion width = 0.42mm

M73 P0 R56
M73 Q0 S57
M201 X1000 Y1000 Z200 E5000 ; sets maximum accelerations, mm/sec^2
M203 X200 Y200 Z12 E120 ; sets maximum feedrates, mm/sec
M204 P1250 R1250 T1250 ; sets acceleration (P, T) and retract acceleration (R), mm/sec^2
M205 X8.00 Y8.00 Z0.40 E4.50 ; sets the jerk limits, mm/sec
M205 S0 T0 ; sets the minimum extruding and travel feed rate, mm/sec
M107
M862.3 P "MK3S" ; printer model check
M862.1 P0.4 ; nozzle diameter check
M115 U3.9.1 ; tell printer latest fw version
G90 ; use absolute coordinates
M83 ; extruder relative mode
M104 S215 ; set extruder temp
M140 S60 ; set bed temp
M190 S60 ; wait for bed temp
M109 S215 ; wait for extruder temp
G28 W ; home all without mesh bed level
G80 ; mesh bed leveling
G1 Y-3.0 F1000.0 ; go outside print area
G92 E0.0
G1 X60.0 E9.0 F1000.0 ; intro line
M73 Q0 S57
M73 P0 R56
G1 X100.0 E12.5 F1000.0 ; intro line
G92 E0.0
M221 S95

; Don't change E values below. Excessive value can damage the printer.
M907 E430 ; set extruder motor current
G21 ; set units to millimeters
G90 ; use absolute coordinates
M83 ; use relative distances for extrusion
M900 K0.05 ; Filament gcode LA 1.5
M900 K30 ; Filament gcode LA 1.0
;BEFORE_LAYER_CHANGE
G92 E0.0
;0.2


G1 E-0.80000 F2100.00000
G1 Z0.600 F10800.000
;AFTER_LAYER_CHANGE
;0.2
G1 X95.711 Y87.843
G1 Z0.200
G1 E0.80000 F2100.00000
M204 S1000
G1 F1200.000
G1 X96.286 Y87.310 E0.02461
G1 X122.762 Y71.876 E0.96088
G1 X124.025 Y71.201 E0.04490
G1 X124.899 Y71.035 E0.02790
G1 X125.494 Y71.112 E0.01882
G1 X126.055 Y71.337 E0.01894
G1 X152.528 Y86.478 E0.95623
G1 X153.758 Y87.236 E0.04531
G1 X154.326 Y87.867 E0.02661
G1 X154.586 Y88.450 E0.02000
G1 X154.681 Y89.080 E0.02000
G1 X154.804 Y119.351 E0.94911
G1 X154.780 Y120.859 E0.04730
G1 X154.668 Y121.441 E0.01858
G1 X154.298 Y122.146 E0.02496
G1 X153.719 Y122.687 E0.02484
G1 X127.238 Y138.124 E0.96106
G1 X125.979 Y138.798 E0.04478
G1 X125.113 Y138.965 E0.02767
G1 X124.498 Y138.886 E0.01941
G1 X123.924 Y138.651 E0.01947
G1 X97.452 Y123.511 E0.95617
G1 X96.242 Y122.764 E0.04460
G1 X95.674 Y122.133 E0.02661
G1 X95.414 Y121.550 E0.02000
G1 X95.319 Y120.920 E0.02000
G1 X95.195 Y90.563 E0.95181
G1 X95.221 Y89.127 E0.04502
G1 X95.339 Y88.539 E0.01882
G1 X95.682 Y87.896 E0.02285
G1 F8640.000
G1 X96.286 Y87.310 E-0.19437
G1 X98.403 Y86.076 E-0.56563
G1 E-0.04000 F2100.00000
G1 Z0.800 F10800.000
G1 X98.371 Y89.788
G1 Z0.200
G1 E0.80000 F2100.00000
G1 F1200.000
G1 X99.087 Y89.433 E0.02505
G1 X100.290 Y88.930 E0.04089
G1 X101.523 Y88.512 E0.04080
G1 X102.781 Y88.180 E0.04080
G1 X104.059 Y87.935 E0.04080
G1 X105.350 Y87.779 E0.04080
G1 X106.652 Y87.712 E0.04085
G1 X107.685 Y87.724 E0.03241
G1 X109.252 Y87.848 E0.04927
G1 X110.275 Y87.999 E0.03244
G1 X112.007 Y88.360 E0.05548
G1 X112.826 Y87.750 E0.03202
G1 X113.345 Y87.453 E0.01874
G1 X113.896 Y87.213 E0.01884
G1 X114.470 Y87.035 E0.01885
G1 X115.046 Y86.923 E0.01840
G1 X116.322 Y86.837 E0.04010
G1 X116.716 Y84.865 E0.06304
G1 X116.972 Y83.920 E0.03071
G1 X117.373 Y82.774 E0.03807
G1 X117.858 Y81.659 E0.03811
G1 X118.423 Y80.587 E0.03800
G1 X119.066 Y79.558 E0.03806
G1 X119.781 Y78.582 E0.03792
G1 X120.571 Y77.658 E0.03814
G1 X121.425 Y76.796 E0.03804
G1 X122.341 Y76.000 E0.03804
G1 X123.315 Y75.272 E0.03811
G1 X124.125 Y74.747 E0.03029
G1 X124.863 Y74.334 E0.02652
G1 X125.452 Y74.725 E0.02216
G1 X126.490 Y75.509 E0.04078
G1 X127.470 Y76.359 E0.04068
G1 X128.390 Y77.276 E0.04074
G1 X128.556 Y77.463 E0.00782
G1 X129.243 Y78.251 E0.03278
G1 X130.028 Y79.285 E0.04070
G1 X130.741 Y80.370 E0.04070
G1 X131.255 Y81.280 E0.03278
G1 X131.375 Y81.498 E0.00782
G1 X131.933 Y82.672 E0.04074
G1 X132.409 Y83.880 E0.04072
G1 X132.724 Y84.861 E0.03231
G1 X133.234 Y86.874 E0.06511
G1 X134.612 Y86.887 E0.04318
G1 X135.300 Y86.983 E0.02179
G1 X135.956 Y87.161 E0.02131
G1 X136.590 Y87.421 E0.02147
G1 X137.537 Y87.971 E0.03435
G1 X139.049 Y87.553 E0.04918
G1 X140.257 Y87.310 E0.03864
G1 X141.479 Y87.158 E0.03862
G1 X142.710 Y87.099 E0.03862
G1 X143.707 Y87.122 E0.03127
G1 X145.164 Y87.257 E0.04588
G1 X146.377 Y87.474 E0.03864
G1 X147.329 Y87.714 E0.03078
G1 X148.735 Y88.178 E0.04642
G1 X149.867 Y88.660 E0.03859
G1 X150.744 Y89.105 E0.03084
G1 X151.487 Y89.548 E0.02711
G1 X151.429 Y90.428 E0.02766
G1 X151.256 Y91.725 E0.04104
G1 X150.994 Y93.009 E0.04107
G1 X150.721 Y94.013 E0.03262
G1 X150.206 Y95.505 E0.04948
G1 X149.799 Y96.462 E0.03262
G1 X149.213 Y97.631 E0.04100
G1 X148.400 Y98.981 E0.04943
G1 X147.806 Y99.837 E0.03263
G1 X146.991 Y100.861 E0.04105
G1 X146.108 Y101.826 E0.04102
G1 X145.157 Y102.731 E0.04115
G1 X144.183 Y103.547 E0.03985
G1 X143.665 Y104.113 E0.02407
G1 X142.660 Y105.028 E0.04260
G1 X144.620 Y106.284 E0.07300
G1 X145.643 Y107.057 E0.04021
G1 X146.604 Y107.910 E0.04029
G1 X147.496 Y108.837 E0.04032
G1 X147.642 Y109.012 E0.00715
G1 X148.310 Y109.827 E0.03306
G1 X149.046 Y110.880 E0.04028
G1 X149.697 Y111.988 E0.04027
G1 X150.259 Y113.142 E0.04027
G1 X150.730 Y114.339 E0.04032
G1 X151.104 Y115.566 E0.04022
G1 X151.382 Y116.820 E0.04028
G1 X151.561 Y118.092 E0.04027
G1 X151.639 Y119.374 E0.04026
G1 X151.624 Y120.214 E0.02637
G1 X150.976 Y120.537 E0.02271
G1 X149.775 Y121.044 E0.04089
G1 X148.544 Y121.467 E0.04080
G1 X147.287 Y121.804 E0.04080
G1 X146.010 Y122.054 E0.04080
G1 X144.718 Y122.216 E0.04082
G1 X143.419 Y122.288 E0.04082
G1 X142.120 Y122.270 E0.04071
G1 X140.821 Y122.163 E0.04087
G1 X139.532 Y121.966 E0.04089
G1 X137.998 Y121.635 E0.04919
G1 X137.174 Y122.250 E0.03226
G1 X136.655 Y122.547 E0.01874
G1 X136.104 Y122.787 E0.01884
G1 X135.530 Y122.965 E0.01885
G1 X134.954 Y123.077 E0.01840
G1 X133.678 Y123.163 E0.04010
G1 X133.284 Y125.135 E0.06304
G1 X133.028 Y126.080 E0.03071
G1 X132.627 Y127.226 E0.03807
G1 X132.142 Y128.341 E0.03811
G1 X131.577 Y129.413 E0.03800
G1 X130.934 Y130.442 E0.03803
G1 X130.216 Y131.421 E0.03807
G1 X129.593 Y132.156 E0.03023
G1 X128.573 Y133.206 E0.04589
G1 X127.659 Y134.000 E0.03795
G1 X126.685 Y134.728 E0.03811
G1 X125.875 Y135.253 E0.03029
G1 X125.137 Y135.666 E0.02650
G1 X124.548 Y135.274 E0.02218
G1 X123.510 Y134.491 E0.04078
G1 X122.530 Y133.641 E0.04068
G1 X121.610 Y132.724 E0.04074
G1 X121.444 Y132.537 E0.00782
G1 X120.757 Y131.749 E0.03278
G1 X119.972 Y130.715 E0.04070
G1 X119.259 Y129.630 E0.04070
G1 X118.745 Y128.720 E0.03278
G1 X118.625 Y128.502 E0.00782
G1 X118.067 Y127.328 E0.04074
G1 X117.591 Y126.120 E0.04072
G1 X117.276 Y125.139 E0.03231
G1 X116.766 Y123.126 E0.06511
G1 X115.388 Y123.113 E0.04318
G1 X114.700 Y123.017 E0.02179
G1 X114.044 Y122.839 E0.02131
G1 X113.410 Y122.579 E0.02147
G1 X112.463 Y122.029 E0.03435
G1 X110.951 Y122.447 E0.04918
G1 X109.743 Y122.690 E0.03864
G1 X108.521 Y122.842 E0.03862
G1 X107.290 Y122.901 E0.03862
G1 X106.293 Y122.878 E0.03127
G1 X104.836 Y122.743 E0.04588
G1 X103.623 Y122.526 E0.03864
G1 X102.671 Y122.286 E0.03078
G1 X101.265 Y121.822 E0.04642
G1 X100.133 Y121.340 E0.03859
G1 X99.256 Y120.895 E0.03084
G1 X98.513 Y120.452 E0.02711
G1 X98.571 Y119.572 E0.02766
G1 X98.744 Y118.275 E0.04104
G1 X99.006 Y116.991 E0.04107
G1 X99.279 Y115.987 E0.03262
G1 X99.794 Y114.495 E0.04948
G1 X100.201 Y113.538 E0.03262
G1 X100.787 Y112.369 E0.04100
G1 X101.600 Y111.019 E0.04943
G1 X102.194 Y110.163 E0.03263
G1 X103.009 Y109.139 E0.04105
G1 X103.892 Y108.174 E0.04102
G1 X104.843 Y107.269 E0.04115
G1 X105.817 Y106.453 E0.03985
G1 X106.335 Y105.887 E0.02407
G1 X107.345 Y104.968 E0.04278
G1 X105.314 Y103.670 E0.07557
G1 X104.295 Y102.891 E0.04023
G1 X103.338 Y102.033 E0.04027
G1 X102.451 Y101.103 E0.04030
G1 X101.785 Y100.290 E0.03297
G1 X100.911 Y99.051 E0.04753
G1 X100.265 Y97.941 E0.04027
G1 X99.709 Y96.783 E0.04027
G1 X99.244 Y95.585 E0.04031
G1 X98.877 Y94.360 E0.04009
G1 X98.604 Y93.100 E0.04042
G1 X98.432 Y91.827 E0.04027
G1 X98.359 Y90.543 E0.04035
G1 X98.370 Y89.848 E0.02178
G1 F8640.000
G1 X99.087 Y89.433 E-0.19120
G1 X100.290 Y88.930 E-0.30109
G1 X101.388 Y88.558 E-0.26771
G1 E-0.04000 F2100.00000
G1 Z0.800 F10800.000
G1 X133.529 Y86.500
G1 Z0.200
G1 E0.80000 F2100.00000
G1 F1200.000
G1 X134.640 Y86.510 E0.03484
G1 X135.376 Y86.613 E0.02330
G1 X136.077 Y86.803 E0.02279
G1 X136.757 Y87.082 E0.02302
G1 X137.590 Y87.565 E0.03019
G1 X138.961 Y87.186 E0.04463
G1 X140.197 Y86.937 E0.03952
G1 X141.447 Y86.782 E0.03949
G1 X142.705 Y86.721 E0.03949
G1 X143.719 Y86.745 E0.03179
G1 X143.962 Y86.755 E0.00764
G1 X145.216 Y86.883 E0.03952
G1 X146.456 Y87.105 E0.03950
G1 X147.434 Y87.352 E0.03162
G1 X148.868 Y87.825 E0.04735
G1 X150.026 Y88.318 E0.03948
G1 X150.926 Y88.775 E0.03164
G1 X151.879 Y89.342 E0.03475
G1 X151.804 Y90.465 E0.03530
G1 X151.628 Y91.788 E0.04184
G1 X151.361 Y93.096 E0.04185
G1 X151.081 Y94.124 E0.03340
G1 X150.558 Y95.640 E0.05029
G1 X150.141 Y96.620 E0.03340
G1 X149.544 Y97.813 E0.04183
G1 X148.716 Y99.186 E0.05027
G1 X148.109 Y100.062 E0.03340
G1 X147.278 Y101.106 E0.04185
G1 X146.377 Y102.090 E0.04183
G1 X145.408 Y103.012 E0.04193
G1 X144.445 Y103.820 E0.03944
G1 X143.931 Y104.381 E0.02383
G1 X143.277 Y104.976 E0.02772
G1 X144.835 Y105.974 E0.05800
G1 X145.882 Y106.766 E0.04118
G1 X146.865 Y107.638 E0.04120
G1 X147.777 Y108.585 E0.04122
G1 X148.611 Y109.599 E0.04118
G1 X149.364 Y110.677 E0.04120
G1 X150.030 Y111.809 E0.04120
G1 X150.605 Y112.991 E0.04120
G1 X151.086 Y114.214 E0.04122
G1 X151.469 Y115.470 E0.04118
G1 X151.753 Y116.753 E0.04120
G1 X151.936 Y118.054 E0.04120
G1 X152.017 Y119.365 E0.04119
G1 X151.997 Y120.450 E0.03402
G1 X151.133 Y120.880 E0.03025
G1 X149.909 Y121.397 E0.04166
G1 X148.654 Y121.828 E0.04161
G1 X147.372 Y122.172 E0.04161
G1 X146.070 Y122.427 E0.04161
G1 X144.752 Y122.591 E0.04163
G1 X143.427 Y122.665 E0.04162
G1 X142.101 Y122.647 E0.04158
G1 X140.777 Y122.537 E0.04164
G1 X139.464 Y122.337 E0.04166
G1 X138.086 Y122.040 E0.04418
G1 X137.381 Y122.566 E0.02759
G1 X136.825 Y122.885 E0.02010
G1 X136.236 Y123.141 E0.02014
G1 X135.622 Y123.331 E0.02014
G1 X135.003 Y123.452 E0.01978
G1 X133.993 Y123.520 E0.03172
G1 X133.710 Y124.995 E0.04709
G1 X133.649 Y125.231 E0.00765
G1 X133.388 Y126.192 E0.03122
G1 X132.978 Y127.364 E0.03893
G1 X132.482 Y128.504 E0.03898
G1 X131.904 Y129.601 E0.03887
G1 X131.247 Y130.653 E0.03891
G1 X130.512 Y131.654 E0.03893
G1 X129.872 Y132.410 E0.03105
G1 X128.832 Y133.480 E0.04679
G1 X127.896 Y134.294 E0.03888
G1 X126.901 Y135.037 E0.03894
G1 X126.070 Y135.577 E0.03107
G1 X125.120 Y136.107 E0.03410
G1 X124.330 Y135.582 E0.02975
G1 X123.272 Y134.785 E0.04154
G1 X122.273 Y133.917 E0.04149
G1 X121.335 Y132.983 E0.04151
G1 X121.161 Y132.786 E0.00823
G1 X120.465 Y131.987 E0.03323
G1 X119.664 Y130.933 E0.04150
G1 X118.937 Y129.827 E0.04150
G1 X118.416 Y128.904 E0.03323
G1 X118.289 Y128.674 E0.00823
G1 X117.721 Y127.479 E0.04151
G1 X117.236 Y126.247 E0.04150
G1 X116.913 Y125.243 E0.03306
G1 X116.471 Y123.500 E0.05637
G1 X115.360 Y123.490 E0.03484
G1 X114.624 Y123.387 E0.02330
G1 X113.923 Y123.197 E0.02279
G1 X113.243 Y122.918 E0.02302
G1 X112.410 Y122.435 E0.03019
G1 X111.039 Y122.814 E0.04463
G1 X109.803 Y123.063 E0.03952
G1 X108.553 Y123.218 E0.03949
G1 X107.295 Y123.279 E0.03949
G1 X106.281 Y123.255 E0.03179
G1 X106.038 Y123.245 E0.00764
G1 X104.784 Y123.117 E0.03952
G1 X103.544 Y122.895 E0.03950
G1 X102.566 Y122.648 E0.03162
G1 X101.132 Y122.175 E0.04735
G1 X99.974 Y121.682 E0.03948
G1 X99.074 Y121.225 E0.03164
G1 X98.121 Y120.658 E0.03475
G1 X98.196 Y119.535 E0.03530
G1 X98.372 Y118.212 E0.04184
G1 X98.639 Y116.904 E0.04185
G1 X98.919 Y115.876 E0.03340
G1 X99.442 Y114.360 E0.05029
G1 X99.859 Y113.380 E0.03340
G1 X100.456 Y112.187 E0.04183
G1 X101.284 Y110.814 E0.05027
G1 X101.891 Y109.938 E0.03340
G1 X102.722 Y108.894 E0.04185
G1 X103.623 Y107.910 E0.04183
G1 X104.592 Y106.988 E0.04193
G1 X105.555 Y106.180 E0.03944
G1 X106.069 Y105.619 E0.02383
G1 X106.727 Y105.021 E0.02788
G1 X105.098 Y103.979 E0.06063
G1 X104.054 Y103.181 E0.04118
G1 X103.076 Y102.304 E0.04120
G1 X102.169 Y101.353 E0.04121
G1 X101.340 Y100.336 E0.04114
G1 X100.592 Y99.254 E0.04125
G1 X99.932 Y98.118 E0.04120
G1 X99.363 Y96.933 E0.04120
G1 X98.888 Y95.708 E0.04121
G1 X98.511 Y94.451 E0.04113
G1 X98.233 Y93.165 E0.04125
G1 X98.056 Y91.863 E0.04120
G1 X97.982 Y90.550 E0.04124
G1 X97.998 Y89.552 E0.03129
G1 X98.930 Y89.090 E0.03263
G1 X100.157 Y88.578 E0.04167
G1 X101.414 Y88.151 E0.04162
G1 X102.697 Y87.812 E0.04161
G1 X104.000 Y87.562 E0.04161
G1 X105.318 Y87.403 E0.04161
G1 X106.644 Y87.335 E0.04163
G1 X107.702 Y87.347 E0.03318
G1 X109.294 Y87.473 E0.05007
G1 X110.341 Y87.628 E0.03319
G1 X111.918 Y87.957 E0.05050
G1 X112.619 Y87.434 E0.02741
G1 X113.175 Y87.115 E0.02010
G1 X113.764 Y86.859 E0.02014
G1 X114.378 Y86.669 E0.02014
G1 X114.997 Y86.548 E0.01978
G1 X116.007 Y86.480 E0.03172
G1 X116.290 Y85.005 E0.04709
G1 X116.351 Y84.769 E0.00765
G1 X116.612 Y83.808 E0.03122
G1 X117.022 Y82.636 E0.03893
G1 X117.518 Y81.496 E0.03898
G1 X118.096 Y80.399 E0.03887
G1 X118.754 Y79.346 E0.03892
G1 X119.487 Y78.347 E0.03887
G1 X120.294 Y77.402 E0.03895
G1 X121.167 Y76.521 E0.03891
G1 X122.104 Y75.706 E0.03891
G1 X123.099 Y74.963 E0.03894
G1 X123.930 Y74.423 E0.03107
G1 X124.880 Y73.893 E0.03411
G1 X125.670 Y74.418 E0.02974
G1 X126.728 Y75.215 E0.04154
G1 X127.727 Y76.083 E0.04149
G1 X128.665 Y77.017 E0.04151
G1 X128.839 Y77.214 E0.00823
G1 X129.535 Y78.013 E0.03323
G1 X130.336 Y79.067 E0.04150
G1 X131.063 Y80.173 E0.04150
G1 X131.584 Y81.096 E0.03323
G1 X131.711 Y81.326 E0.00823
G1 X132.279 Y82.521 E0.04151
G1 X132.764 Y83.753 E0.04150
G1 X133.087 Y84.757 E0.03306
G1 X133.514 Y86.441 E0.05449
G1 X133.562 Y86.898 F10800.000
G1 X133.024 Y86.503
G1 F1200.000
G1 X122.646 Y76.125 E0.46233
G1 X122.952 Y75.896 E0.01206
G1 X132.607 Y85.551 E0.43013
G1 X132.415 Y84.823 E0.02373
G1 X123.259 Y75.667 E0.40789
G1 X123.571 Y75.443 E0.01209
G1 X132.161 Y84.033 E0.38268
G1 X131.820 Y83.156 E0.02963
G1 X123.896 Y75.232 E0.35302
G1 X124.221 Y75.021 E0.01220
G1 X131.393 Y82.193 E0.31951
G1 X131.124 Y81.628 E0.01971
G1 X130.816 Y81.081 E0.01977
G1 X124.562 Y74.826 E0.27865
G1 X124.851 Y74.665 E0.01042
G1 X125.106 Y74.835 E0.00967
G1 X130.538 Y80.267 E0.24198
G1 F8640.000
G1 X128.210 Y77.939 E-0.76000
G1 E-0.04000 F2100.00000
G1 Z0.800 F10800.000
G1 X151.322 Y90.335
G1 Z0.200
G1 E0.80000 F2100.00000
G1 F1200.000
G1 X150.063 Y89.077 E0.05606
G1 X149.748 Y88.917 E0.01115
G1 X149.085 Y88.635 E0.02267
G1 X151.112 Y90.662 E0.09030
G1 X151.049 Y91.135 E0.01502
G1 X148.221 Y88.306 E0.12600
G1 X147.421 Y88.042 E0.02654
G1 X150.986 Y91.607 E0.15882
G1 X150.900 Y92.056 E0.01441
G1 X146.687 Y87.844 E0.18765
G1 X146.002 Y87.694 E0.02210
G1 X150.809 Y92.501 E0.21413
G1 X150.718 Y92.946 E0.01430
G1 X145.349 Y87.578 E0.23915
G1 X144.738 Y87.502 E0.01942
G1 X150.603 Y93.367 E0.26130
G1 X150.489 Y93.788 E0.01375
G1 X144.147 Y87.447 E0.28251
G1 X143.566 Y87.402 E0.01836
G1 X150.359 Y94.194 E0.30261
G1 X150.221 Y94.593 E0.01327
G1 X143.018 Y87.389 E0.32093
G1 X142.486 Y87.393 E0.01676
G1 X150.084 Y94.991 E0.33850
G1 X149.946 Y95.389 E0.01327
G1 X141.974 Y87.417 E0.35514
G1 X141.466 Y87.445 E0.01604
G1 X149.787 Y95.766 E0.37070
G1 X149.627 Y96.142 E0.01287
G1 X140.989 Y87.504 E0.38482
G1 X140.513 Y87.563 E0.01513
G1 X149.459 Y96.509 E0.39854
G1 X149.280 Y96.866 E0.01258
G1 X140.053 Y87.639 E0.41105
G1 X139.607 Y87.729 E0.01433
G1 X149.101 Y97.223 E0.42296
G1 X148.917 Y97.575 E0.01250
G1 X139.161 Y87.819 E0.43462
G1 X138.739 Y87.932 E0.01378
G1 X148.716 Y97.909 E0.44447
G1 X148.514 Y98.243 E0.01230
G1 X138.319 Y88.048 E0.45420
G1 X137.899 Y88.164 E0.01372
G1 X148.313 Y98.578 E0.46392
G1 X148.107 Y98.907 E0.01225
G1 X137.441 Y88.242 E0.47514
G1 X136.464 Y87.675 E0.03558
G1 X136.251 Y87.588 E0.00725
G1 X147.887 Y99.224 E0.51838
G1 X147.668 Y99.540 E0.01213
G1 X135.443 Y87.315 E0.54463
G1 X135.243 Y87.261 E0.00651
G1 X134.789 Y87.197 E0.01444
G1 X147.438 Y99.846 E0.56348
